X:178
T:Polska efter Pelle Fors
R:sl\"angpolska
H:efter Pelle Fors, upptecknad av R L R\"a\"af 1888. Jfr #95, #130, #193
A:\"Osterg\"otland
Z:id:hn-sp-178
M:3/4
L:1/16
K:D
D2D2 F2D2 F2D2 | DEFG A2F2 A2F2 | A2A2 d2d2 f2f2 | fdfd dcdA GFED |
D2D2 F2D2 F2D2 | DEFG A2F2 A2F2 | A2A2 d2d2 f2f2 | AcAc d4 z4 :|
|: e2f2 gfef e2e2 | e2f2 gfef e2e2 | e2f2 g2f2 e2d2 |
dcdf edcB AGFE | e2f2 gfef e2e2 | e2f2 gfef e2e2 |
e2f2 g2a2 b2g2 | agfe d4 d4 :|

